X: 13591
T: Flying To The Fleadh
R: slip jig
M: 9/8
K: Bminor
B3 Bcd cBA|B3 Bcd efg|f3 efa fed|e3 aed cBA|
B2 d cBA B2 F|B3 Bcd efg|f3 efa fed|e3 aed cde||
f3 efa fed|e3 aed cBA|B2 d cde def|ecA EAc efg|
f3 efa fed|e3 aed cBA|B2 d cde def|edc adc B2 c||
dFF cFF dcB|cEE BEE cde|dFF cFF def|1 edc adc B2 c:|2 edc adc B2 A||

